!!!!SEGMENT: pl-wtm--r-2487_hertz-michal--krakowiak.krn
!!!cenid: 18xx:2397
!!!COM: Hertz, Michał
!!!COM-rismid: pe41023359
!!!CDT: 1844/09/28-~1918
!!!CNT: Polish
!!!OTL: Krakowiak
!!!PDT:
!!!AGN: Secular
!!!SMS-siglum: PL-Wtm
!!!SMS-shelfmark: R 2487
!!!SMS-shelfwork: W
!!!SMS-variant:
!!!SMS-altvar:
!!!NIFC-rismid: 1001081770
!!!URL-scan: http://repozytorium.nifc.pl/skany/pl-wtm-nut--r2487
!!!ONB-nifc:
!!!OMD: Moderato
**kern	**kern	**dynam
*part2	*part1	*part1
*staff2	*staff1	*
*I"Piano	*I"Piano	*
*>[A,B,B1,B,B2,C	*	*
*>A	*>A	*>A
*clefF4	*clefG2	*
*k[f#c#g#]	*k[f#c#g#]	*
!	!LO:TX:t=P:problem:poprawki nutowe zawrzeć w 1 wersji (główny skryptor)(EZ)	!
8r	8a/	p
=1	=1	=1
*	*^	*
8r	4.g#/	8rg	.
8EL 8EE\	.	8dL 8c#\	.
8EJ 8EE\	.	8dJ 8B\	.
8r	8cc#\	8r	.
=2	=2	=2	=2
8r	4.b/	8r	<
8AL 8E\	.	8f#L 8d\	.
8G#J 8E\	.	8eJ 8d\	.
8r	8ff#\	8r	.
=3	=3	=3	=3
8r	2eeT/	8r	.
8G# 8GG#\	.	8dd 8a 8e\	.
8r	.	8r	.
8A 8AA\	.	8dd 8a 8e\	[[
*	*v	*v	*
=4	=4	=4
8BL 8BB\	8ee 8dd 8g# 8e\	f
8EJ 8EE\	8r	.
4r;<	8r;	.
.	8f#/	.
=5!|:	=5!|:	=5!|:
*>B	*>B	*>B
!	!LO:N:vis=16	!
8GG#\L	8e/L	.
8dJ 8B 8E\	16g#/L	.
.	16a/JJ	.
8EE\L	8b\L	.
8dJ 8G# 8E\	8dd\J	.
=6	=6	=6
8AA\L	8cc#\	.
8c#J 8A 8E\	4a/	.
8A 8E 8C#\	.	.
8r	8cc#\	.
!!LO:LB:g=original
=7	=7	=7
8.E\L	8.b\L	.
16eJk 16c#\	16a\Jk	.
8dL 8B\	8g#\L	.
8G#J 8E\	8bJ 8e 8d\	.
=8	=8	=8
8A 8AA\	8a 8e 8c#/	.
4c# 4A 4E\	4cc# 4a 4e/	.
8r	16a/LL	.
.	16f#/JJ	.
=9	=9	=9
8GG#\L	8e/L	.
8dJ 8B 8E\	16g#/L	.
.	16a/JJ	.
8EE\L	8b\L	.
8dJ 8G# 8E\	8dd\J	.
=10	=10	=10
8AA\L	8cc#\L	.
8c#J 8A 8E\	8a\J	.
8qFF#/	.	.
4c# 4A 4F#\	4cc# 4a 4f#^\	.
=11	=11	=11
*^	*	*
8r	8.D\L	16b\LL	.
.	.	16cc#\	.
8d 8B 8F#/	.	16dd\	.
.	16BB\Jk	16ee\JJ	.
8d 8G# 8E\	4ryy	8.ff#\L	.
8r	.	.	.
.	.	16g#\Jk	.
*v	*v	*	*
=12	=12	=12
!!LO:TX:a:t=1a
*>B1	*>B1	*>B1
8.r	(8bL 8d\	.
.	16aL 16c#\)	.
16A 16E 16AA\	16aJJ 16e 16c#\	.
8e 8c# 8A\	8aa 8ee 8cc# 8a\	.
8r	16r	.
.	16f#/	.
!!LO:LB:g=original
=13:|!	=13:|!	=13:|!
!!LO:TX:a:t=2do
*>B2	*>B2	*>B2
8.r	8bL 8d\	.
.	16aL 16c#\	.
16A 16E 16AA\	16aJJ 16e 16c#\	.
8e 8c# 8A\	8aa 8ee 8cc# 8a\	.
8r	16r	.
.	16cc#\	.
=14||	=14||	=14||
*>C	*>C	*>C
8D#X\L	8b\L	.
8BJ 8A 8F#\	16dd#X\L	.
.	16ee\JJ	.
4d#X 4B 4A\	8.ff#\L	.
.	16b\Jk	.
=15	=15	=15
8E\L	8gg#\	.
8eJ 8B 8G#\	4ee\	.
8AA\L	.	.
8eJ 8c# 8A\	16dd#X\LL	.
.	16cc#\JJ	.
=16	=16	=16
8BB\L	8b\	.
8d#XJ 8B 8A\	4f#/	.
4B 4A 4D#X\	.	.
.	8cc#\	.
=17	=17	=17
8E\L	8b\	.
8eJ 8B 8G#\	4g#/	.
4B 4G# 4E\	.	.
.	16dd#X\LL	.
.	16cc#\JJ	.
=18	=18	=18
8D#X\L	8b\L	.
8BJ 8A 8F#\	16dd#X\L	.
.	16ee\JJ	.
8BB\L	(16gg#\LL	.
.	16ff#\)	.
8BJ 8A 8F#\	16dd#\	.
.	16b\JJ	.
!!LO:LB:g=original
=19	=19	=19
8E\L	8gg#\	.
8eJ 8B 8G#\	4ee\	.
8qAA/	.	.
4e 4c# 4A\	.	.
.	16dd#X\LL	.
.	16cc#\JJ	.
=20	=20	=20
8BB\L	16a#X\LL	.
.	16b\	.
8d#XJ 8B 8A\	16cc#\	.
.	16b\JJ	.
4f# 4d# 4B 4A\	8.aa\L	.
.	16dd#X\Jk	.
=21	=21	=21
(8dL 8A [8E\	8ff# 8f#\	.
16G#L 16E\])	4ee 4e\	.
16dJJ 16B\	.	.
16c#LL 16A\	.	.
16B 16E\	.	.
16A 16C#\	16r	.
16G#JJ 16BB\	16f# 16d/	.
=22	=22	=22
*	*^	*
8G#L 8GG#\	8e/L	8d 8B\	.
8dJ 8B 8E\	16g#/L	8ryy	.
.	16a/JJ	.	.
8EE\L	8b/L	4ryy	.
8dJ 8G# 8E\	8dd/J	.	.
*	*v	*v	*
=23	=23	=23
8AA\L	8cc#\	.
16c#L 16A 16E\	4a/	.
16dJJ 16A 16F#\	.	.
16c#LL 16A 16E\	.	.
16AJ 16E 16C#\	.	.
8c#J 8A 8E\	8cc#\	.
=24	=24	=24
8.dL 8.G# 8.E\	8.b/L	.
16eJk 16c#\	16a/Jk	.
8dL 8B\	8g#/L	.
8G#J 8E\	8bJ 8e 8d/	.
!!LO:LB:g=original
=25	=25	=25
8A 8AA\	8a 8e 8c#/	.
4c# 4A 4E\	4cc# 4a 4e/	.
8r	16a/LL	.
.	16f#/JJ	.
=26	=26	=26
8GG#\L	8e/L	.
8dJ 8B 8E\	16g#/L	.
.	16a/JJ	.
8EE\L	8b\L	.
8dJ 8G# 8E\	8dd\J	.
=27	=27	=27
8AA\L	8cc#\L	.
8c#J 8A 8E\	8a\J	.
8qFF#/	.	.
4c# 4A 4F#\	4cc# 4a 4f#^\	.
=28	=28	=28
*^	*	*
8r	8.D\L	(16b\LL	.
.	.	16dd\)	.
8d 8B 8F#/	.	16gg#'\	.
.	16BB\Jk	16ff#'\JJ	.
16d/LL	8G# 8E\	8.ee\L	.
16c#/	.	.	.
16d/	8r	.	.
16B/JJ	.	16g#\Jk	.
*v	*v	*	*
=29	=29	=29
8.r	(8bL 8d\	.
.	16aL 16c#\)	.
16A 16E 16AA\	16aJJ 16e 16c#\	.
!LO:TX:b:i:t=Fine.	!	!
4e 4c# 4A\	4aa 4ee 4cc# 4a\	.
!!LO:LB:g=original
=30||	=30||	=30||
!!!OMD: Trio.
*k[f#c#]	*k[f#c#]	*
*M2/4	*M2/4	*
*	*^	*
!	!LO:TX:b:i:t=dolce	!	!LO:DY:rj
8D 8DD\	4ryy	8A< 8F#</	p
8r	.	4F#</	.
4r	8aL 8d/	.	.
.	8ddJ 8a 8f#/	8d</	.
=31	=31	=31	=31
8GG\	8r	(4c#</	.
8r	8g 8d/	.	.
4r	4b 4g 4d/	8.B</L)	.
.	.	16A</Jk	.
=32	=32	=32	=32
8AA\	4r	8G</	.
8r	.	4E</	.
4r	8gL 8c# 8A/	.	.
.	8aJ 8g 8e/	8c#</	.
=33	=33	=33	=33
8FF#\	8r	(4B</	.
8r	8f# 8d/	.	.
4r	4dd 4f#\	8.A</L)	.
.	.	16G</Jk	.
=34	=34	=34	=34
8BB\	4ryy	8F#</	.
8r	.	4D</	.
4r	8bL 8f#\	.	.
.	8ff#J 8dd\	8B</	.
=35	=35	=35	=35
8EE/	8r	(4A</	.
8r	8e 8B/	.	.
4r	4b 4e/	8.G</L)	.
.	.	16F#</Jk	.
*	*v	*v	*
!!LO:PB:g=original
=36	=36	=36
*^	*	*
8F#/L	8AA\	8r	.
8E/	8r	8gL 8c# 8A/	.
8D/	4r	8g 8B 8A/	.
8E/J	.	8gJ 8c# 8A/	.
*v	*v	*	*
=37	=37	=37
*	*^	*
8D 8AA 8DD\	8f#L 8d 8A/	4.F#</	.
8r	8a 8f# 8d/	.	.
8r	8dd 8a 8f#/	.	.
8AA\	8aJ 8g 8c#/	8A</	.
=38	=38	=38	=38
8D\	8a 8f# 8d/	8A</	.
8r	8r	4F#</	.
4r	8aL 8d/	.	.
.	8aJ 8f#/	(<16e</LL	.
.	.	16d</JJ)	.
=39	=39	=39	=39
8G 8D 8GG\	8r	8c#</	.
8r	8gL 8d/	4B</	.
4r	8cc#J 8g 8d/	.	.
.	8r	16A<'</LL	.
.	.	16G#X<'</JJ	.
=40	=40	=40	=40
8C# 8AA\	8r	8Gn</	.
8r	8c#L 8G/	4E</	.
4r	8gJ 8c#/	.	.
.	8r	(<16d</LL	.
.	.	16c#</JJ)	.
=41	=41	=41	=41
8F# 8D\	8r	8B</	.
8r	8f#L 8d\	4A</	.
4r	8ddJ 8f#\	.	.
.	8r	16G#X</LL	.
.	.	16Gn</JJ	.
!!LO:LB:g=original
=42	=42	=42	=42
8D 8BB\	8r	8F#</	.
8r	8f#L 8B/	4D</	.
4r	8bJ 8f#/	.	.
.	8r	(<16c#</LL	.
.	.	16B</JJ)	.
=43	=43	=43	=43
8E 8BB 8EE\	8r	8A</	.
8r	8eL 8B/	4G#X</	.
4r	8bJ 8e/	.	.
.	8r	16Gn</LL	.
.	.	16F#</JJ	.
=44	=44	=44	=44
8AA\	8r	4.F#</	.
8r	8c#L 8A/	.	.
4r	8a 8c# 8A/	.	.
.	8gJ 8c# 8A/	8E</	.
=45	=45	=45	=45
4r	8f#L 8d 8A/	4D</	.
.	8aJ 8f# 8d 8A/	.	.
8D 8DD\	8dd 8a 8f# 8d\	4ryy	.
8r	16r	.	.
.	16f#/	.	.
*	*v	*v	*
=46||	=46||	=46||
*k[f#c#g#]	*k[f#c#g#]	*
*>D	*>D	*>D
!	!LO:N:vis=16	!
!	!LO:TX:t=P:problem:w partyturze zostawione puste takty, żeby wpisaqć tt. 5-25	!
8GG#\Lyy	8e/Lyy	.
8dJyy 8Byy 8E\yy	16g#/Lyy	.
.	16a/JJyy	.
8EE\Lyy	8b\Lyy	.
8dJyy 8G#yy 8E\yy	8dd\Jyy	.
=47	=47	=47
8AA\Lyy	8cc#\yy	.
8c#Jyy 8Ayy 8E\yy	4a/yy	.
8Ayy 8Eyy 8C#\yy	.	.
8ryy	8cc#\yy	.
!!LO:LB:g=original
=48	=48	=48
8.E\Lyy	8.b\Lyy	.
16eJkyy 16c#\yy	16a\Jkyy	.
8dLyy 8B\yy	8g#\Lyy	.
8G#Jyy 8E\yy	8bJyy 8eyy 8d\yy	.
=49	=49	=49
8Ayy 8AA\yy	8ayy 8eyy 8c#/yy	.
4c#yy 4Ayy 4E\yy	4cc#yy 4ayy 4e/yy	.
8ryy	16a/LLyy	.
.	16f#/JJyy	.
=50	=50	=50
8GG#\Lyy	8e/Lyy	.
8dJyy 8Byy 8E\yy	16g#/Lyy	.
.	16a/JJyy	.
8EE\Lyy	8b\Lyy	.
8dJyy 8G#yy 8E\yy	8dd\Jyy	.
=51	=51	=51
8AA\Lyy	8cc#\Lyy	.
8c#Jyy 8Ayy 8E\yy	8a\Jyy	.
8qFF#/yy	.	.
4c#yy 4Ayy 4F#\yy	4cc#yy 4ayy 4f#^\yy	.
=52	=52	=52
*^	*	*
8ryy	8.D\Lyy	16b\LLyy	.
.	.	16cc#\yy	.
8dyy 8Byy 8F#/yy	.	16dd\yy	.
.	16BB\Jkyy	16ee\JJyy	.
8dyy 8G#yy 8E\yy	4ryyyy	8.ff#\Lyy	.
8ryy	.	.	.
.	.	16g#\Jkyy	.
*v	*v	*	*
=53	=53	=53
!!LO:TX:a:t=1a
*>D1	*>D1	*>D1
8.ryy	(y8bLyy 8d\yy	.
.	16aLyy 16c#\)yy	.
16Ayy 16Eyy 16AA\yy	16aJJyy 16eyy 16c#\yy	.
8eyy 8c#yy 8A\yy	8aayy 8eeyy 8cc#yy 8a\yy	.
8ryy	16ryy	.
.	16f#/yy	.
!!LO:LB:g=original
=54	=54	=54
!!LO:TX:a:t=2do
*>D2	*>D2	*>D2
8.ryy	8bLyy 8d\yy	.
.	16aLyy 16c#\yy	.
16Ayy 16Eyy 16AA\yy	16aJJyy 16eyy 16c#\yy	.
8eyy 8c#yy 8A\yy	8aayy 8eeyy 8cc#yy 8a\yy	.
8ryy	16ryy	.
.	16cc#\yy	.
=55	=55	=55
*>E	*>E	*>E
8D#X\Lyy	8b\Lyy	.
8BJyy 8Ayy 8F#\yy	16dd#X\Lyy	.
.	16ee\JJyy	.
4d#Xyy 4Byy 4A\yy	8.ff#\Lyy	.
.	16b\Jkyy	.
=56	=56	=56
8E\Lyy	8gg#\yy	.
8eJyy 8Byy 8G#\yy	4ee\yy	.
8AA\Lyy	.	.
8eJyy 8c#yy 8A\yy	16dd#X\LLyy	.
.	16cc#\JJyy	.
=57	=57	=57
8BB\Lyy	8b\yy	.
8d#XJyy 8Byy 8A\yy	4f#/yy	.
4Byy 4Ayy 4D#X\yy	.	.
.	8cc#\yy	.
=58	=58	=58
8E\Lyy	8b\yy	.
8eJyy 8Byy 8G#\yy	4g#/yy	.
4Byy 4G#yy 4E\yy	.	.
.	16dd#X\LLyy	.
.	16cc#\JJyy	.
=59	=59	=59
8D#X\Lyy	8b\Lyy	.
8BJyy 8Ayy 8F#\yy	16dd#X\Lyy	.
.	16ee\JJyy	.
8BB\Lyy	(y16gg#\LLyy	.
.	16ff#\)yy	.
8BJyy 8Ayy 8F#\yy	16dd#\yy	.
.	16b\JJyy	.
!!LO:LB:g=original
=60	=60	=60
8E\Lyy	8gg#\yy	.
8eJyy 8Byy 8G#\yy	4ee\yy	.
8qAA/yy	.	.
4eyy 4c#yy 4A\yy	.	.
.	16dd#X\LLyy	.
.	16cc#\JJyy	.
=61	=61	=61
8BB\Lyy	16a#X\LLyy	.
.	16b\yy	.
8d#XJyy 8Byy 8A\yy	16cc#\yy	.
.	16b\JJyy	.
4f#yy 4d#yy 4Byy 4A\yy	8.aa\Lyy	.
.	16dd#X\Jkyy	.
=62	=62	=62
(y8dLyy 8Ayy [8E\yy	8ff#yy 8f#\yy	.
16G#Lyy 16E\])yy	4eeyy 4e\yy	.
16dJJyy 16B\yy	.	.
16c#LLyy 16A\yy	.	.
16Byy 16E\yy	.	.
16Ayy 16C#\yy	16ryy	.
16G#JJyy 16BB\yy	16f#yy 16d/yy	.
=63	=63	=63
*	*^	*
8G#Lyy 8GG#\yy	8e/Lyy	8dyy 8B\yy	.
8dJyy 8Byy 8E\yy	16g#/Lyy	8ryyyy	.
.	16a/JJyy	.	.
8EE\Lyy	8b/Lyy	4ryyyy	.
8dJyy 8G#yy 8E\yy	8dd/Jyy	.	.
*	*v	*v	*
=64	=64	=64
8AA\Lyy	8cc#\yy	.
16c#Lyy 16Ayy 16E\yy	4a/yy	.
16dJJyy 16Ayy 16F#\yy	.	.
16c#LLyy 16Ayy 16E\yy	.	.
16AJyy 16Eyy 16C#\yy	.	.
8c#Jyy 8Ayy 8E\yy	8cc#\yy	.
=65	=65	=65
8.dLyy 8.G#yy 8.E\yy	8.b/Lyy	.
16eJkyy 16c#\yy	16a/Jkyy	.
8dLyy 8B\yy	8g#/Lyy	.
8G#Jyy 8E\yy	8bJyy 8eyy 8d/yy	.
!!LO:LB:g=original
=66	=66	=66
8Ayy 8AA\yy	8ayy 8eyy 8c#/yy	.
4c#yy 4Ayy 4E\yy	4cc#yy 4ayy 4e/yy	.
8ryy	16a/LLyy	.
.	16f#/JJyy	.
=67	=67	=67
*^	*^	*
8E/L	4.E\	8e/L	4.e\	.
16E/L	.	16g#/L	.	.
16F#/JJ	.	16a/JJ	.	.
8G#/L	.	8b/L	.	.
8G#/J	8E\	8dd/J	8g# 8e\	.
*v	*v	*	*	*
*	*v	*v	*
=68	=68	=68
8A 8AA\	4cc# 4a 4e\	.
4A 4C#\	.	.
.	8a 8e/	.
8A 8C#\	8ee 8a 8e\	.
=69	=69	=69
*	*^	*
8B 8BB\	8dd 8g# 8e\	4ryy	.
4d 4D\	4b 4g# 4e\	.	.
.	.	8ryy	.
8B 8BB\	16gg#/LL	8dd 8g#\	.
.	16ff#/JJ	.	.
*	*v	*v	*
=70	=70	=70
8A 8E 8C#\	8ee 8a 8e\	.
4A 4AA\	4cc# 4a 4e\	.
8A 8E 8C#\	8aa 8ee 8a\	.
=71	=71	=71
8D\L	(8bbL 8b\	.
8dJ 8B 8F#\	16aaL 16a\)	.
.	16ff#JJ 16f#\	.
8BB\L	8.ddL 8.d\	.
8dJ 8B 8F#\	.	.
.	16ff#Jk 16f#\	.
!!LO:PB:g=original
=72	=72	=72
8E\L	8ff#L 8f#\	.
8c#J 8A\	16eeL 16e\	.
.	16cc#JJ 16c#\	.
8.AL 8.E 8.C#\	8.aL 8.A/	.
16AJk 16E 16AA\	16cc#Jk 16c#/	.
=73	=73	=73
*^	*	*
*	*^	*	*
[2d/	4.G#\	[<2E\	8eeL 8e\	.
.	.	.	8ee#XJ 8e#X\	.
.	.	.	[4ff# [4f#\	.
.	8A\	.	.	.
=74	=74	=74	=74	=74
4.d\]	(>4A#X\	4.E\]	8ff#]L 8f#\]	.
.	.	.	8ff##X 8f##X\	.
.	8B\L)	.	8gg# 8g#\	.
8ryy	8dJ 8G# 8E\	8ryy	8eeJ 8e\	.
*	*v	*v	*	*
=75	=75	=75	=75
(4d/	8dL 8G# 8E\	(8bbL 8b\	.
!	!LO:TX:t=P:problem:# na początku taktu	!	!
.	8c#J 8A 8F#X@\)	8aaJ 8a\)	.
8r	4ryy	8r	.
8d 8A 8F# 8D\	.	8ff# 8dd 8a\	.
*v	*v	*	*
=76	=76	=76
4c#@ 4A@ 4C#@\	8ff#L@ 8f#\@	.
.	8eeJ@ 8e\@	.
8r@	8r@	.
8e@ 8B@ 8G#@ 8E@\	8gg#@ 8dd@ 8cc#@ 8g#@\	.
=77	=77	=77
4..a 4..e 4..c# 4..A\	4..ccc# 4..aa 4..ee 4..cc#\	.
16AA 16AAA/	16a 16A/	.
=78	=78	=78
2AA 2AAA;</	2a 2A;/	.
==	==	==
*-	*-	*-
!!!system-decoration: {(s1,s2)}
!!!RDF**kern: > = above
!!!RDF**kern: < = below
!!!RDF**kern: @ = marked note, color=grey
!!!ENC: Marcin Jachim
!!!END: 2021-06-10
!!!ENC: Marta Lawrence
!!!END: 2021-10-09
